src/lib/packages/icons/src/assets/filled/alarm-minus.svg

<svg width="24" height="24" viewBox="0 0 24 24" fill="none" xmlns="http://www.w3.org/2000/svg">
<path fill-rule="evenodd" clip-rule="evenodd" d="M5.53005 3.53005L3.53005 5.53005C3.38405 5.67605 3.19202 5.75002 3.00002 5.75002C2.80802 5.75002 2.61599 5.67705 2.46999 5.53005C2.17699 5.23705 2.17699 4.76202 2.46999 4.46902L4.46999 2.46902C4.76299 2.17602 5.23803 2.17602 5.53103 2.46902C5.82403 2.76202 5.82305 3.23705 5.53005 3.53005ZM21.5249 4.46401L19.5249 2.50405C19.2289 2.21405 18.7549 2.21904 18.4629 2.51504C18.1739 2.81104 18.1791 3.28607 18.4741 3.57607L20.4741 5.53603C20.6201 5.67903 20.81 5.75002 20.999 5.75002C21.193 5.75002 21.3879 5.67505 21.5349 5.52505C21.8249 5.22905 21.8199 4.75401 21.5249 4.46401ZM16.6021 18.5371L18.531 20.471C18.823 20.764 18.8231 21.239 18.5291 21.532C18.3831 21.678 18.191 21.751 18 21.751C17.808 21.751 17.615 21.6771 17.469 21.5301L15.25 19.3059C14.256 19.7489 13.158 20 12 20C10.842 20 9.74402 19.7489 8.75002 19.3059L6.53103 21.5301C6.38503 21.6761 6.19202 21.75 6.00002 21.75C5.80902 21.75 5.61697 21.677 5.47097 21.531C5.17697 21.239 5.17702 20.763 5.46902 20.47L7.39797 18.5359C5.34497 17.0879 4.001 14.703 4.001 11.999C4.001 7.58105 7.583 3.99905 12.001 3.99905C16.419 3.99905 20.001 7.58105 20.001 11.999C20 14.703 18.6551 17.0891 16.6021 18.5371ZM14.5 12.75C14.914 12.75 15.25 12.414 15.25 12C15.25 11.586 14.914 11.25 14.5 11.25H9.50002C9.08602 11.25 8.75002 11.586 8.75002 12C8.75002 12.414 9.08602 12.75 9.50002 12.75H14.5Z" fill="currentColor"/>
</svg>

<svg xmlns="http://www.w3.org/2000/svg" width="24" height="24" fill="none"><path fill="currentColor" fill-rule="evenodd" d="m5.53 3.53-2 2a.748.748 0 0 1-1.06 0 .75.75 0 0 1 0-1.061l2-2A.75.75 0 1 1 5.53 3.53Zm15.995.934-2-1.96a.751.751 0 0 0-1.05 1.072l2 1.96a.748.748 0 0 0 1.06-.01.751.751 0 0 0-.01-1.062Zm-4.923 14.073 1.929 1.934a.75.75 0 0 1-1.062 1.06l-2.219-2.225a7.96 7.96 0 0 1-6.5 0L6.531 21.53a.75.75 0 0 1-1.062-1.06l1.929-1.934a7.983 7.983 0 0 1-3.397-6.537 8 8 0 0 1 16 0 7.99 7.99 0 0 1-3.399 6.538ZM14.5 12.75a.75.75 0 0 0 0-1.5h-5a.75.75 0 0 0 0 1.5h5Z" clip-rule="evenodd"/></svg>
